X: 22
T: The Main of Honour
R: march
M: C|
L: 1/4
Z: 2010 John Chambers <jc:trillian.mit.edu>
B: John Johnson ed. "Twenty Four Country Dances", p.83 London 1766
K: C
|: ca ac | Bg gB | ca ac | B2 G2 | ca ac | Bg gB | Ag d^f | g2 G2 :|
|: ^Ge e^G | Ae e=G | ^Fd d^F | Gd d=F | Ec cE | Ff fD | Ec GB | c2 C2 :|


%%sep 5 1 500

